icons/copilot-24.svg

<svg width="24" height="24" viewBox="0 0 24 24" fill="none" xmlns="http://www.w3.org/2000/svg">
<g clip-path="url(#clip0_71_2322)">
<path d="M9.75 14C10.1642 14 10.5 14.3358 10.5 14.75V17.25C10.5 17.6642 10.1642 18 9.75 18C9.33579 18 9 17.6642 9 17.25V14.75C9 14.3358 9.33579 14 9.75 14Z" fill="black"/>
<path d="M14.25 14C14.6642 14 15 14.3358 15 14.75V17.25C15 17.6642 14.6642 18 14.25 18C13.8358 18 13.5 17.6642 13.5 17.25V14.75C13.5 14.3358 13.8358 14 14.25 14Z" fill="black"/>
<path fill-rule="evenodd" clip-rule="evenodd" d="M12 2C9.78623 2 7.75198 2.65699 6.25318 3.75611C6.11661 3.85626 5.98414 3.96041 5.85616 4.06837C5.27189 4.30251 4.77924 4.61397 4.38219 5.02003C3.53212 5.88939 3.25 7.05683 3.25 8.38779C3.25 8.75619 3.26358 9.12082 3.30217 9.47434L2.66887 10.952L2.62574 10.9736C1.01651 11.7782 0 13.423 0 15.2221L1.90735e-06 16.25C0 16.779 0.30945 17.2366 0.564458 17.5426C0.844917 17.8792 1.20117 18.1964 1.53148 18.4607C1.86617 18.7284 2.19757 18.9602 2.44335 19.124C2.56686 19.2064 2.67021 19.2725 2.74345 19.3186C2.7801 19.3416 2.8093 19.3597 2.8298 19.3722L2.85392 19.387L2.86043 19.3911L2.89988 19.4157C2.93353 19.4366 2.9818 19.466 3.04397 19.5028C3.1683 19.5764 3.34843 19.6796 3.5787 19.8024C4.03891 20.0478 4.70138 20.3728 5.52072 20.6973C7.15469 21.3444 9.4387 22 12 22C14.5613 22 16.8453 21.3444 18.4793 20.6973C19.2986 20.3728 19.9611 20.0478 20.4213 19.8024C20.6516 19.6796 20.8317 19.5764 20.956 19.5028C21.0182 19.466 21.0665 19.4366 21.1001 19.4157L21.1396 19.3911L21.1461 19.387L21.1702 19.3722C21.1907 19.3597 21.2199 19.3416 21.2566 19.3186C21.3298 19.2725 21.4331 19.2064 21.5567 19.124C21.8024 18.9602 22.1338 18.7284 22.4685 18.4607C22.7988 18.1964 23.1551 17.8792 23.4355 17.5426C23.6906 17.2366 24 16.779 24 16.25L24 15.2221C24 13.423 22.9835 11.7782 21.3743 10.9736L21.3311 10.952L20.6978 9.47433C20.7364 9.12082 20.75 8.75619 20.75 8.38779C20.75 7.05683 20.4679 5.88939 19.6178 5.02003C19.2208 4.61397 18.7281 4.3025 18.1438 4.06837C18.0159 3.96041 17.8834 3.85626 17.7468 3.75611C16.248 2.65699 14.2138 2 12 2ZM4 11.6539L4.03846 11.5642C4.08411 11.6247 4.13227 11.6838 4.18309 11.7414C4.97622 12.641 6.24038 13 7.96532 13C9.55455 13 10.7035 12.4555 11.4732 11.5083C11.6042 11.347 11.7219 11.1769 11.8278 10.9996C11.8852 10.9999 11.9426 11 12 11C12.0574 11 12.1148 10.9999 12.1722 10.9996C12.2781 11.1769 12.3958 11.347 12.5268 11.5083C13.2965 12.4555 14.4454 13 16.0347 13C17.7596 13 19.0238 12.641 19.8169 11.7414C19.8677 11.6838 19.9159 11.6247 19.9615 11.5642L20 11.6539V18.3228C19.9186 18.3688 19.8235 18.4212 19.7154 18.4789C19.2967 18.7022 18.6858 19.0022 17.927 19.3027C16.4047 19.9056 14.3137 20.5 12 20.5C9.68631 20.5 7.59531 19.9056 6.07304 19.3027C5.31425 19.0022 4.70328 18.7022 4.28458 18.4789C4.17653 18.4212 4.08141 18.3688 4 18.3228V11.6539ZM10.309 10.5623C10.1994 10.6973 10.0743 10.823 9.9298 10.9358C9.49178 11.2775 8.87503 11.5 7.96532 11.5C6.3916 11.5 5.67311 11.1633 5.30824 10.7494C5.11638 10.5318 4.97683 10.2442 4.88523 9.85955C4.79363 9.47491 4.75 8.99329 4.75 8.38779C4.75 7.24804 4.99271 6.54118 5.45468 6.06872C5.93186 5.58072 6.77351 5.207 8.27927 5.04405C9.76552 4.8832 10.4707 5.18237 10.8119 5.57285L10.8204 5.58266C11.0841 5.89096 11.2488 6.38918 11.2501 7.15055L11.2501 7.18229C11.249 7.44479 11.2287 7.7381 11.1867 8.06514C11.1783 8.13119 11.1693 8.19645 11.1597 8.26092C11.0169 9.22789 10.7542 10.0145 10.309 10.5623ZM12.8133 8.06514C12.7707 7.73361 12.7505 7.43674 12.7499 7.17149L12.7499 7.15053C12.7512 6.38104 12.9194 5.88036 13.1881 5.57285C13.5293 5.18237 14.2345 4.8832 15.7207 5.04405C17.2265 5.207 18.0681 5.58072 18.5453 6.06872C19.0073 6.54118 19.25 7.24804 19.25 8.38779C19.25 9.59876 19.0755 10.3142 18.6918 10.7494C18.3269 11.1633 17.6084 11.5 16.0347 11.5C14.8249 11.5 14.1332 11.1065 13.691 10.5623C13.2161 9.97798 12.9489 9.12195 12.8133 8.06514Z" fill="black"/>
</g>
<defs>
<clipPath id="clip0_71_2322">
<rect width="24" height="24" fill="white"/>
</clipPath>
</defs>
</svg>

<svg xmlns="http://www.w3.org/2000/svg" width="24" height="24" viewBox="0 0 24 24"><path d="M9.75 14a.75.75 0 01.75.75v2.5a.75.75 0 01-1.5 0v-2.5a.75.75 0 01.75-.75zm4.5 0a.75.75 0 01.75.75v2.5a.75.75 0 01-1.5 0v-2.5a.75.75 0 01.75-.75z"/><path fill-rule="evenodd" d="M12 2c-2.214 0-4.248.657-5.747 1.756a7.43 7.43 0 00-.397.312c-.584.235-1.077.546-1.474.952-.85.87-1.132 2.037-1.132 3.368 0 .368.014.733.052 1.086l-.633 1.478-.043.022A4.75 4.75 0 000 15.222v1.028c0 .529.31.987.564 1.293.28.336.637.653.967.918a13.262 13.262 0 001.299.911l.024.015.006.004.04.025.144.087c.124.073.304.177.535.3.46.245 1.122.57 1.942.894C7.155 21.344 9.439 22 12 22s4.845-.656 6.48-1.303c.819-.324 1.481-.65 1.941-.895a13.797 13.797 0 00.68-.386l.039-.025.006-.004.024-.015a8.829 8.829 0 00.387-.248c.245-.164.577-.396.912-.663.33-.265.686-.582.966-.918.256-.306.565-.764.565-1.293v-1.028a4.75 4.75 0 00-2.626-4.248l-.043-.022-.633-1.478c.038-.353.052-.718.052-1.086 0-1.331-.282-2.499-1.132-3.368-.397-.406-.89-.717-1.474-.952a7.386 7.386 0 00-.397-.312C16.248 2.657 14.214 2 12 2zm-8 9.654l.038-.09c.046.06.094.12.145.177.793.9 2.057 1.259 3.782 1.259 1.59 0 2.739-.544 3.508-1.492.131-.161.249-.331.355-.508a32.948 32.948 0 00.344 0c.106.177.224.347.355.508.77.948 1.918 1.492 3.508 1.492 1.725 0 2.989-.359 3.782-1.259.05-.057.099-.116.145-.177l.038.09v6.669a17.618 17.618 0 01-2.073.98C16.405 19.906 14.314 20.5 12 20.5c-2.314 0-4.405-.594-5.927-1.197A17.62 17.62 0 014 18.323v-6.67zm6.309-1.092a2.35 2.35 0 01-.38.374c-.437.341-1.054.564-1.964.564-1.573 0-2.292-.337-2.657-.75-.192-.218-.331-.506-.423-.89-.091-.385-.135-.867-.135-1.472 0-1.14.243-1.847.705-2.32.477-.487 1.319-.861 2.824-1.024 1.487-.16 2.192.138 2.533.529l.008.01c.264.308.429.806.43 1.568v.031a7.203 7.203 0 01-.09 1.079c-.143.967-.406 1.754-.851 2.301zm2.504-2.497a7.174 7.174 0 01-.063-.894v-.02c.001-.77.17-1.27.438-1.578.341-.39 1.046-.69 2.533-.529 1.506.163 2.347.537 2.824 1.025.462.472.705 1.179.705 2.319 0 1.21-.174 1.926-.558 2.361-.365.414-1.084.751-2.657.751-1.21 0-1.902-.393-2.344-.938-.475-.584-.742-1.44-.878-2.497z"/></svg>
